assets/icons/24px/outline/bank-24px.svg

<svg width="24" height="24" viewBox="0 0 24 24" fill="none" xmlns="http://www.w3.org/2000/svg">
<path d="M5.5 11C5.5 10.4477 5.05228 10 4.5 10C3.94772 10 3.5 10.4477 3.5 11H5.5ZM20.5 11C20.5 10.4477 20.0523 10 19.5 10C18.9477 10 18.5 10.4477 18.5 11H20.5ZM15.5 11C15.5 10.4477 15.0523 10 14.5 10C13.9477 10 13.5 10.4477 13.5 11H15.5ZM10.5 11C10.5 10.4477 10.0523 10 9.5 10C8.94772 10 8.5 10.4477 8.5 11H10.5ZM3 20C2.44772 20 2 20.4477 2 21C2 21.5523 2.44772 22 3 22V20ZM21 22C21.5523 22 22 21.5523 22 21C22 20.4477 21.5523 20 21 20V22ZM19.6782 9.27405L20.3659 8.54809L19.6782 9.27405ZM20.7097 10.6851L19.7807 10.3149L20.7097 10.6851ZM3.29031 10.6851L4.21927 10.3149L4.21927 10.3149L3.29031 10.6851ZM12 2.755V1.755V2.755ZM5.00958 10L9.93676 5.33214L8.56127 3.88024L3.63409 8.54809L5.00958 10ZM14.0632 5.33214L18.9904 10L20.3659 8.54809L15.4387 3.88024L14.0632 5.33214ZM5.00958 12H18.9904V10H5.00958V12ZM5.5 21V11H3.5V21H5.5ZM20.5 21V11H18.5V21H20.5ZM15.5 21V11H13.5V21H15.5ZM10.5 21V11H8.5V21H10.5ZM3 22H4.5V20H3V22ZM4.5 22H9.5V20H4.5V22ZM9.5 22H14.5V20H9.5V22ZM14.5 22H19.5V20H14.5V22ZM19.5 22H21V20H19.5V22ZM18.9904 10C19.186 10.1853 19.3449 10.3359 19.4771 10.4674C19.611 10.6007 19.6958 10.693 19.7485 10.7591C19.8065 10.8318 19.7863 10.8246 19.7631 10.7562C19.7298 10.6582 19.7104 10.4915 19.7807 10.3149L21.6387 11.0553C21.9208 10.3471 21.5137 9.76473 21.3119 9.51186C21.0805 9.22174 20.7274 8.89054 20.3659 8.54809L18.9904 10ZM18.9904 12C19.4884 12 19.9725 12.0024 20.34 11.951C20.6604 11.9062 21.3565 11.7634 21.6387 11.0553L19.7807 10.3149C19.8511 10.1383 19.9799 10.0307 20.0714 9.98243C20.1354 9.94873 20.1549 9.9574 20.0629 9.97028C19.9791 9.98201 19.854 9.99076 19.6652 9.99538C19.4788 9.99994 19.2598 10 18.9904 10V12ZM3.63409 8.54809C3.27262 8.89055 2.91951 9.22174 2.68805 9.51186C2.48632 9.76473 2.07917 10.3471 2.36134 11.0553L4.21927 10.3149C4.28964 10.4915 4.27021 10.6582 4.23692 10.7562C4.21367 10.8246 4.19351 10.8318 4.25147 10.7591C4.30424 10.693 4.38899 10.6007 4.52289 10.4674C4.65508 10.3359 4.81403 10.1853 5.00958 10L3.63409 8.54809ZM5.00958 10C4.74021 10 4.5212 9.99994 4.33479 9.99538C4.14596 9.99076 4.02093 9.98201 3.93714 9.97028C3.84509 9.9574 3.86464 9.94873 3.92859 9.98243C4.02013 10.0307 4.14891 10.1383 4.21927 10.3149L2.36134 11.0553C2.64352 11.7634 3.33962 11.9062 3.65998 11.951C4.02754 12.0024 4.51165 12 5.00958 12V10ZM9.93676 5.33214C10.608 4.6962 11.0417 4.28819 11.4014 4.02723C11.7377 3.78322 11.895 3.755 12 3.755V1.755C11.3081 1.755 10.7412 2.03532 10.227 2.40837C9.73608 2.76447 9.19269 3.28205 8.56127 3.88024L9.93676 5.33214ZM15.4387 3.88024C14.8073 3.28205 14.2639 2.76447 13.773 2.40836C13.2588 2.03532 12.6919 1.755 12 1.755V3.755C12.105 3.755 12.2623 3.78322 12.5986 4.02723C12.9583 4.28818 13.392 4.6962 14.0632 5.33214L15.4387 3.88024Z" fill="white"/>
</svg>

<svg width="24" height="24" fill="none" xmlns="http://www.w3.org/2000/svg"><path d="M5.5 11a1 1 0 1 0-2 0h2zm15 0a1 1 0 1 0-2 0h2zm-5 0a1 1 0 1 0-2 0h2zm-5 0a1 1 0 1 0-2 0h2zM3 20a1 1 0 1 0 0 2v-2zm18 2a1 1 0 1 0 0-2v2zM19.678 9.274l.688-.726-.688.726zm1.032 1.411l-.93-.37.93.37zm-17.42 0l.93-.37-.93.37zM12 2.755v-1 1zM5.01 10l4.927-4.668L8.56 3.88 3.634 8.548 5.01 10zm9.053-4.668L18.99 10l1.376-1.452-4.927-4.668-1.376 1.452zM5.01 12h13.98v-2H5.01v2zm.49 9V11h-2v10h2zm15 0V11h-2v10h2zm-5 0V11h-2v10h2zm-5 0V11h-2v10h2zM3 22h1.5v-2H3v2zm1.5 0h5v-2h-5v2zm5 0h5v-2h-5v2zm5 0h5v-2h-5v2zm5 0H21v-2h-1.5v2zm-.51-12c.196.185.355.336.487.467.134.134.219.226.271.292.058.073.038.066.015-.003a.654.654 0 0 1 .018-.441l1.858.74c.282-.708-.125-1.29-.327-1.543-.232-.29-.585-.621-.946-.964L18.99 10zm0 2c.498 0 .983.002 1.35-.049.32-.045 1.017-.188 1.299-.896l-1.858-.74c.07-.177.199-.284.29-.333.064-.033.084-.025-.008-.012-.084.012-.209.02-.398.025a29.35 29.35 0 0 1-.675.005v2zM3.634 8.548c-.361.343-.714.674-.946.964-.202.253-.609.835-.327 1.543l1.858-.74c.07.177.051.343.018.441-.023.069-.043.076.014.003.053-.066.138-.158.272-.292.132-.131.291-.282.487-.467L3.634 8.548zM5.01 10c-.27 0-.489 0-.675-.005a3.713 3.713 0 0 1-.398-.025c-.092-.013-.072-.021-.008.012.091.049.22.156.29.333l-1.858.74c.283.708.979.851 1.299.896.368.051.852.049 1.35.049v-2zm4.927-4.668c.671-.636 1.105-1.044 1.464-1.305.337-.244.494-.272.599-.272v-2c-.692 0-1.259.28-1.773.653-.49.356-1.034.874-1.666 1.472l1.376 1.452zm5.502-1.452c-.632-.598-1.175-1.116-1.666-1.472-.514-.373-1.081-.653-1.773-.653v2c.105 0 .262.028.599.272.36.261.793.67 1.464 1.305L15.44 3.88z" fill="#fff"/></svg>
